X:262
T: DIR MOECHT ICH DIESE LIEDER WEIHEN
N: F0460
O: Europa, Mitteleuropa, Deutschland
R: Vaterlands -, Heimat - Lied
M: 4/4
L: 1/16
K: Eb
G8 | F4E4B,3B,E2E2 | E4D4z6
F2 | F6F2E4D4 | F3EE4z4
G4 | G6F2E3DC2C2 | C3DC4z2
C2C2C2 | D4F4E3DE3C | D8z2
F2F2F2 | F4D4E3DE3F | D4z4
G6G2 | F4D4C4F4 | B,8z4
D4 | D6B,2B,8 | F6D2D8 | z4
F4F6E2 | E4D4z4
B,4 | B,12B,4 | B,12B,4
B,12B,4 | E12E4 | D8z2
B,2B,3B, | E4E4z4E3E | E4E4z4
C4 | C6C2C2C2C2C2 | C8z2
C2F3E | E2D2D4z4G3F | F2E2E4z4
E4 | F6F2E2E2D2D2 | G4E2z2
E4C2z2 | B,6B,2B,2B,2C2B,2 | G4E2z2
E4C2z2 | B,6B,2B,2B,2C2B,2 | G,8z2
B,2E3E | E4D4z4F3F | F4E4z2
B,2G3E | E4D4z4D3D | F12F3E | E8

